assets/images/AWS/Compute/EC2/Compute_AmazonEC2_Instances.svg

<?xml version="1.0" encoding="UTF-8" standalone="no"?>
<!-- Generator: Adobe Illustrator 18.1.1, SVG Export Plug-In . SVG Version: 6.00 Build 0)  -->

<svg
   xmlns:dc="http://purl.org/dc/elements/1.1/"
   xmlns:cc="http://creativecommons.org/ns#"
   xmlns:rdf="http://www.w3.org/1999/02/22-rdf-syntax-ns#"
   xmlns:svg="http://www.w3.org/2000/svg"
   xmlns="http://www.w3.org/2000/svg"
   xmlns:sodipodi="http://sodipodi.sourceforge.net/DTD/sodipodi-0.dtd"
   xmlns:inkscape="http://www.inkscape.org/namespaces/inkscape"
   version="1.2"
   id="Layer_1"
   x="0px"
   y="0px"
   viewBox="0 0 100 100"
   xml:space="preserve"
   inkscape:version="0.91 r13725"
   sodipodi:docname="Compute_AmazonEC2_Instances.svg"><metadata
     id="metadata100"><rdf:RDF><cc:Work
         rdf:about=""><dc:format>image/svg+xml</dc:format><dc:type
           rdf:resource="http://purl.org/dc/dcmitype/StillImage" /></cc:Work></rdf:RDF></metadata><defs
     id="defs98" /><sodipodi:namedview
     pagecolor="#ffffff"
     bordercolor="#666666"
     borderopacity="1"
     objecttolerance="10"
     gridtolerance="10"
     guidetolerance="10"
     inkscape:pageopacity="0"
     inkscape:pageshadow="2"
     inkscape:window-width="1280"
     inkscape:window-height="985"
     id="namedview96"
     showgrid="false"
     inkscape:zoom="7.4579687"
     inkscape:cx="50.26817"
     inkscape:cy="60.726781"
     inkscape:window-x="0"
     inkscape:window-y="0"
     inkscape:window-maximized="1"
     inkscape:current-layer="Layer_1" /><g
     id="Layer_3"
     transform="matrix(1.7541398,0,0,1.7541398,-18.657418,-59.202988)" /><g
     id="g7"
     transform="matrix(1.7541398,0,0,1.7541398,-55.917592,-84.606549)"><polygon
       style="fill:#9d5025"
       id="polygon9"
       points="72.859,78.504 48.9,78.504 47.904,74.969 72.859,75.809 " /></g><g
     id="g11"
     transform="matrix(1.7541398,0,0,1.7541398,-37.70699,-37.70699)"><g
       id="g13"><polygon
         style="fill:#9d5025"
         id="polygon15"
         points="53.713,32.91 35.891,32.91 33.396,29.508 53.713,30.217 " /></g><g
       id="g17"><path
         style="fill:#9d5025"
         inkscape:connector-curvature="0"
         id="path19"
         d="m 35.891,30.217 0,2.693 c -0.98,0 -1.842,0.551 -2.285,1.355 l 0,-2.695 c 0.443,-0.802 1.304,-1.353 2.285,-1.353" /><path
         style="fill:#9d5025"
         inkscape:connector-curvature="0"
         id="path21"
         d="m 33.605,31.57 0,2.695 c -0.08,0.143 -0.146,0.295 -0.197,0.453 l 0,-2.695 c 0.051,-0.158 0.117,-0.308 0.197,-0.453" /><path
         style="fill:#9d5025"
         inkscape:connector-curvature="0"
         id="path23"
         d="m 33.408,32.023 0,2.695 c -0.043,0.133 -0.074,0.271 -0.096,0.412 l 0,-2.693 c 0.022,-0.14 0.053,-0.279 0.096,-0.414" /><path
         style="fill:#9d5025"
         inkscape:connector-curvature="0"
         id="path25"
         d="m 33.312,32.438 0,2.693 c -0.018,0.119 -0.025,0.24 -0.025,0.363 l 0,-2.693 c 0,-0.123 0.008,-0.244 0.025,-0.363" /></g><path
       style="fill:#9d5025"
       inkscape:connector-curvature="0"
       id="path27"
       d="m 35.891,30.217 0,2.693 c -1.43,0 -2.604,1.168 -2.604,2.584 l 0,-2.693 c 0,-1.416 1.174,-2.584 2.604,-2.584 z" /><g
       id="g29"><polygon
         style="fill:#9d5025"
         id="polygon31"
         points="64.418,45.367 46.42,45.367 44.896,42.297 64.418,42.674 " /></g><g
       id="g33"><path
         style="fill:#9d5025"
         inkscape:connector-curvature="0"
         id="path35"
         d="m 46.607,42.674 0,2.693 c -0.984,0 -1.84,0.545 -2.281,1.346 l 0,-2.693 c 0.442,-0.803 1.297,-1.346 2.281,-1.346" /><path
         style="fill:#9d5025"
         inkscape:connector-curvature="0"
         id="path37"
         d="m 44.326,44.02 0,2.693 c -0.08,0.145 -0.146,0.299 -0.197,0.457 l 0,-2.693 c 0.051,-0.161 0.117,-0.313 0.197,-0.457" /><path
         style="fill:#9d5025"
         inkscape:connector-curvature="0"
         id="path39"
         d="m 44.129,44.477 0,2.693 c -0.043,0.137 -0.078,0.277 -0.1,0.422 l 0,-2.695 c 0.022,-0.143 0.057,-0.286 0.1,-0.42" /><path
         style="fill:#9d5025"
         inkscape:connector-curvature="0"
         id="path41"
         d="m 44.029,44.896 0,2.695 c -0.016,0.121 -0.025,0.246 -0.025,0.373 l 0,-2.693 c 0,-0.126 0.01,-0.251 0.025,-0.375" /></g><path
       style="fill:#9d5025"
       inkscape:connector-curvature="0"
       id="path43"
       d="m 46.607,42.674 0,2.693 c -1.441,0 -2.604,1.166 -2.604,2.598 l 0,-2.693 c 10e-4,-1.432 1.163,-2.598 2.604,-2.598 z" /><g
       id="g45"><polygon
         style="fill:#9d5025"
         id="polygon47"
         points="33.287,53.52 27.342,53.52 26.41,50.25 33.287,50.824 " /></g><g
       id="g49"><path
         style="fill:#9d5025"
         inkscape:connector-curvature="0"
         id="path51"
         d="m 27.342,50.824 0,2.695 c -1.428,0 -2.602,-1.152 -2.602,-2.582 l 0,-2.695 c 0,1.432 1.174,2.582 2.602,2.582" /></g><path
       style="fill:#9d5025"
       inkscape:connector-curvature="0"
       id="path53"
       d="m 27.342,50.824 0,2.695 c -1.428,0 -2.602,-1.152 -2.602,-2.582 l 0,-2.695 c 0,1.432 1.174,2.582 2.602,2.582 z" /><g
       id="g55"><rect
         style="fill:#9d5025"
         id="rect57"
         height="2.6949999"
         width="6.1329999"
         y="63.280998"
         x="37.870998" /></g><g
       id="g59"><path
         style="fill:#9d5025"
         inkscape:connector-curvature="0"
         id="path61"
         d="m 38.059,63.281 0,2.695 c -1.441,0 -2.604,-1.152 -2.604,-2.582 l 0,-2.695 c 0,1.43 1.162,2.582 2.604,2.582" /></g><path
       style="fill:#9d5025"
       inkscape:connector-curvature="0"
       id="path63"
       d="m 38.059,63.281 0,2.695 c -1.441,0 -2.604,-1.152 -2.604,-2.582 l 0,-2.695 c 0,1.43 1.162,2.582 2.604,2.582 z" /><g
       id="g65"><path
         style="fill:#9d5025"
         inkscape:connector-curvature="0"
         id="path67"
         d="m 48.9,75.809 0,2.695 c -1.441,0 -2.602,-1.168 -2.602,-2.584 l 0,-2.695 c 10e-4,1.418 1.161,2.584 2.602,2.584" /></g><path
       style="fill:#9d5025"
       inkscape:connector-curvature="0"
       id="path69"
       d="m 48.9,75.809 0,2.695 c -1.441,0 -2.602,-1.168 -2.602,-2.584 l 0,-2.695 c 10e-4,1.418 1.161,2.584 2.602,2.584 z" /><g
       id="g71"><path
         style="fill:#9d5025"
         inkscape:connector-curvature="0"
         id="path73"
         d="m 75.26,73.225 0,2.695 c 0,0.125 -0.008,0.246 -0.027,0.365 l 0,-2.693 c 0.019,-0.119 0.027,-0.242 0.027,-0.367" /><path
         style="fill:#9d5025"
         inkscape:connector-curvature="0"
         id="path75"
         d="m 75.232,73.592 0,2.693 c -0.02,0.143 -0.053,0.283 -0.096,0.416 l 0,-2.693 c 0.044,-0.135 0.077,-0.274 0.096,-0.416" /><path
         style="fill:#9d5025"
         inkscape:connector-curvature="0"
         id="path77"
         d="m 75.137,74.008 0,2.693 c -0.051,0.16 -0.117,0.312 -0.197,0.457 l 0,-2.693 c 0.08,-0.147 0.146,-0.297 0.197,-0.457" /><path
         style="fill:#9d5025"
         inkscape:connector-curvature="0"
         id="path79"
         d="m 74.939,74.465 0,2.693 c -0.441,0.799 -1.293,1.346 -2.268,1.346 l 0,-2.695 c 0.975,0 1.827,-0.545 2.268,-1.344" /></g><path
       style="fill:#9d5025"
       inkscape:connector-curvature="0"
       id="path81"
       d="m 75.26,73.225 0,2.695 c 0,1.416 -1.162,2.584 -2.588,2.584 l 0,-2.695 c 1.426,0 2.588,-1.166 2.588,-2.584 z" /><g
       id="g83"><path
         style="fill:#f58536"
         inkscape:connector-curvature="0"
         id="path85"
         d="m 51.111,21.496 c 1.441,0 2.602,1.152 2.602,2.582 l 0,6.139 -17.822,0 c -1.43,0 -2.604,1.168 -2.604,2.584 l 0,18.023 -5.945,0 c -1.428,0 -2.602,-1.15 -2.602,-2.582 l 0,-24.164 c 0,-1.43 1.174,-2.582 2.602,-2.582 0,0 23.769,0 23.769,0 z" /></g><g
       id="g87"><path
         style="fill:#f58536"
         inkscape:connector-curvature="0"
         id="path89"
         d="m 61.828,33.951 c 1.428,0 2.59,1.168 2.59,2.584 l 0,6.139 -17.811,0 c -1.441,0 -2.604,1.166 -2.604,2.598 l 0,18.01 -5.945,0 c -1.441,0 -2.604,-1.152 -2.604,-2.582 l 0,-24.165 c 0,-1.416 1.162,-2.584 2.604,-2.584 l 23.77,0 z" /></g><g
       id="g91"><path
         style="fill:#f58536"
         inkscape:connector-curvature="0"
         id="path93"
         d="m 72.672,46.479 c 1.426,0 2.588,1.152 2.588,2.568 l 0,24.178 c 0,1.418 -1.162,2.584 -2.588,2.584 l -23.772,0 c -1.441,0 -2.602,-1.166 -2.602,-2.584 l 0,-24.178 c 0,-1.416 1.16,-2.568 2.602,-2.568 l 23.772,0 z" /></g></g><g
     id="nyt_x5F_exporter_x5F_info"
     display="none" /></svg>

<?xml version="1.0" encoding="utf-8"?>
<!-- Generator: Adobe Illustrator 18.1.1, SVG Export Plug-In . SVG Version: 6.00 Build 0)  -->
<svg version="1.2" baseProfile="tiny" id="Layer_1" xmlns="http://www.w3.org/2000/svg" xmlns:xlink="http://www.w3.org/1999/xlink"
	 x="0px" y="0px" viewBox="0 0 100 100" xml:space="preserve">
<g id="Layer_3">
</g>
<g id="Layer_1_1_">
	<text transform="matrix(1 0 0 1 8.8604 -4.6973)" fill="#231F20" font-family="'HelveticaNeueLTStd-Roman'" font-size="21.0885">Instances</text>
	<g>
		<polygon fill="#9D5025" points="72.859,75.809 72.859,78.504 48.9,78.504 47.904,74.969 		"/>
	</g>
	<g>
		<g>
			<polygon fill="#9D5025" points="53.713,30.217 53.713,32.91 35.891,32.91 33.396,29.508 			"/>
		</g>
		<g>
			<path fill="#9D5025" d="M35.891,30.217v2.693c-0.98,0-1.842,0.551-2.285,1.355V31.57C34.049,30.768,34.91,30.217,35.891,30.217"
				/>
			<path fill="#9D5025" d="M33.605,31.57v2.695c-0.08,0.143-0.146,0.295-0.197,0.453v-2.695
				C33.459,31.865,33.525,31.715,33.605,31.57"/>
			<path fill="#9D5025" d="M33.408,32.023v2.695c-0.043,0.133-0.074,0.271-0.096,0.412v-2.693
				C33.334,32.297,33.365,32.158,33.408,32.023"/>
			<path fill="#9D5025" d="M33.312,32.438v2.693c-0.018,0.119-0.025,0.24-0.025,0.363v-2.693
				C33.287,32.678,33.295,32.557,33.312,32.438"/>
		</g>
		<path fill="#9D5025" d="M35.891,30.217v2.693c-1.43,0-2.604,1.168-2.604,2.584v-2.693C33.287,31.385,34.461,30.217,35.891,30.217z
			"/>
		<g>
			<polygon fill="#9D5025" points="64.418,42.674 64.418,45.367 46.42,45.367 44.896,42.297 			"/>
		</g>
		<g>
			<path fill="#9D5025" d="M46.607,42.674v2.693c-0.984,0-1.84,0.545-2.281,1.346V44.02C44.768,43.217,45.623,42.674,46.607,42.674"
				/>
			<path fill="#9D5025" d="M44.326,44.02v2.693c-0.08,0.145-0.146,0.299-0.197,0.457v-2.693
				C44.18,44.316,44.246,44.164,44.326,44.02"/>
			<path fill="#9D5025" d="M44.129,44.477v2.693c-0.043,0.137-0.078,0.277-0.1,0.422v-2.695
				C44.051,44.754,44.086,44.611,44.129,44.477"/>
			<path fill="#9D5025" d="M44.029,44.896v2.695c-0.016,0.121-0.025,0.246-0.025,0.373v-2.693
				C44.004,45.145,44.014,45.02,44.029,44.896"/>
		</g>
		<path fill="#9D5025" d="M46.607,42.674v2.693c-1.441,0-2.604,1.166-2.604,2.598v-2.693C44.004,43.84,45.166,42.674,46.607,42.674z
			"/>
		<g>
			<polygon fill="#9D5025" points="33.287,50.824 33.287,53.52 27.342,53.52 26.41,50.25 			"/>
		</g>
		<g>
			<path fill="#9D5025" d="M27.342,50.824v2.695c-1.428,0-2.602-1.152-2.602-2.582v-2.695C24.74,49.674,25.914,50.824,27.342,50.824
				"/>
		</g>
		<path fill="#9D5025" d="M27.342,50.824v2.695c-1.428,0-2.602-1.152-2.602-2.582v-2.695C24.74,49.674,25.914,50.824,27.342,50.824z
			"/>
		<g>
			<rect x="37.871" y="63.281" fill="#9D5025" width="6.133" height="2.695"/>
		</g>
		<g>
			<path fill="#9D5025" d="M38.059,63.281v2.695c-1.441,0-2.604-1.152-2.604-2.582v-2.695
				C35.455,62.129,36.617,63.281,38.059,63.281"/>
		</g>
		<path fill="#9D5025" d="M38.059,63.281v2.695c-1.441,0-2.604-1.152-2.604-2.582v-2.695C35.455,62.129,36.617,63.281,38.059,63.281
			z"/>
		<g>
			<path fill="#9D5025" d="M48.9,75.809v2.695c-1.441,0-2.602-1.168-2.602-2.584v-2.695C46.299,74.643,47.459,75.809,48.9,75.809"/>
		</g>
		<path fill="#9D5025" d="M48.9,75.809v2.695c-1.441,0-2.602-1.168-2.602-2.584v-2.695C46.299,74.643,47.459,75.809,48.9,75.809z"/>
		<g>
			<path fill="#9D5025" d="M75.26,73.225v2.695c0,0.125-0.008,0.246-0.027,0.365v-2.693C75.252,73.473,75.26,73.35,75.26,73.225"/>
			<path fill="#9D5025" d="M75.232,73.592v2.693c-0.02,0.143-0.053,0.283-0.096,0.416v-2.693
				C75.18,73.873,75.213,73.734,75.232,73.592"/>
			<path fill="#9D5025" d="M75.137,74.008v2.693c-0.051,0.16-0.117,0.312-0.197,0.457v-2.693
				C75.02,74.318,75.086,74.168,75.137,74.008"/>
			<path fill="#9D5025" d="M74.939,74.465v2.693c-0.441,0.799-1.293,1.346-2.268,1.346v-2.695
				C73.646,75.809,74.498,75.264,74.939,74.465"/>
		</g>
		<path fill="#9D5025" d="M75.26,73.225v2.695c0,1.416-1.162,2.584-2.588,2.584v-2.695C74.098,75.809,75.26,74.643,75.26,73.225z"/>
		<g>
			<path fill="#F58536" d="M51.111,21.496c1.441,0,2.602,1.152,2.602,2.582v6.139H35.891c-1.43,0-2.604,1.168-2.604,2.584v18.023
				h-5.945c-1.428,0-2.602-1.15-2.602-2.582V24.078c0-1.43,1.174-2.582,2.602-2.582C27.342,21.496,51.111,21.496,51.111,21.496z"/>
		</g>
		<g>
			<path fill="#F58536" d="M61.828,33.951c1.428,0,2.59,1.168,2.59,2.584v6.139H46.607c-1.441,0-2.604,1.166-2.604,2.598v18.01
				h-5.945c-1.441,0-2.604-1.152-2.604-2.582V36.535c0-1.416,1.162-2.584,2.604-2.584H61.828z"/>
		</g>
		<g>
			<path fill="#F58536" d="M72.672,46.479c1.426,0,2.588,1.152,2.588,2.568v24.178c0,1.418-1.162,2.584-2.588,2.584H48.9
				c-1.441,0-2.602-1.166-2.602-2.584V49.047c0-1.416,1.16-2.568,2.602-2.568H72.672z"/>
		</g>
	</g>
</g>
<g id="nyt_x5F_exporter_x5F_info" display="none">
</g>
</svg>
